usr/share/icons/biglinux-icons-material/symbolic/devices/phone-symbolic.svg

<svg width="16" height="16" version="1.1" xmlns="http://www.w3.org/2000/svg">
 <g fill="#dedede" stroke-linecap="round" stroke-linejoin="round" stroke-width="2" style="paint-order:stroke fill markers" aria-label="">
  <path d="m12 0q0.21094 0 0.39062 0.078125 0.17969 0.078125 0.3125 0.21875 0.14062 0.13281 0.21875 0.3125t0.078125 0.39062v14q0 0.21094-0.07813 0.39062-0.07813 0.17969-0.21875 0.32031-0.13281 0.13281-0.3125 0.21094-0.17968 0.078125-0.39062 0.078125h-8q-0.21094 0-0.39062-0.078125t-0.32031-0.21094q-0.13281-0.14062-0.21094-0.32031-0.078125-0.17969-0.078125-0.39062v-14q0-0.21094 0.078125-0.39062t0.21094-0.3125q0.14062-0.14062 0.32031-0.21875t0.39062-0.078125zm0 1h-8v14h8zm-5 12h2v1h-2z" stroke-width="2"/>
 </g>
</svg>

<svg xmlns="http://www.w3.org/2000/svg" width="16" height="16"><path fill="#dedede" stroke-linecap="round" stroke-linejoin="round" stroke-width="2" d="M12 0q.21 0 .39.078.18.078.313.219.14.133.219.312T13 1v14q0 .21-.078.39-.078.18-.219.32-.133.134-.312.212Q12.21 16 12 16H4q-.21 0-.39-.078t-.32-.211q-.134-.14-.212-.32Q3 15.21 3 15V1q0-.21.078-.39T3.29.296q.14-.14.32-.219T4 0zm0 1H4v14h8zM7 13h2v1H7z" aria-label="" style="paint-order:stroke fill markers"/></svg>
